X: 26212
T: Mean Fouyir
R: reel
M: 4/4
K: Bminor
|:BAFG E3F|G3F GA B/c/d|AFEF D3E|FE F/G/A BAdA|
BAFG E3F|FGGF GA Bd|Bg3 gfec|d/c/B AF FEE2:|
fg3 gfec|dAFA defd|Bg3 gfec|dBAF FEE2|
fg3 gfec|defg a2ga|bgaf gfec|dBAF FEE2|
fg3 gfec|dAFA defd|Bg3 gfec|dBAF FEE2|
EFGA BABd|Ad3 defd|Bg3 gfec|dBAF FEE2||

